icons/plexis/48/ballerburg.svg

<svg viewBox="0 0 48 48" xmlns="http://www.w3.org/2000/svg" xmlns:xlink="http://www.w3.org/1999/xlink">
  <linearGradient id="a" gradientTransform="matrix(0 -1 1 0 -.0000015 47.999998)" gradientUnits="userSpaceOnUse" x1="1" x2="47">
    <stop offset="0" stop-color="#e4e4e4"/>
    <stop offset="1" stop-color="#eee"/>
  </linearGradient>
  <linearGradient id="b" gradientUnits="userSpaceOnUse" x2="0" y1="24" y2="19">
    <stop offset="0" stop-color="#484848"/>
    <stop offset=".494" stop-color="#505050"/>
    <stop offset="1" stop-color="#484848"/>
  </linearGradient>
  <path d="m47 24c0 22.703-.297 23-23 23-22.703 0-23-.297-23-23 0-22.703.297-23 23-23 22.703 0 23 .297 23 23z" fill="url(#a)"/>
  <g transform="translate(1 1)">
    <path d="m12.533 19c-.295 0-.533.223-.533.5v4c0 .277.238.5.533.5h6.645a5 5 0 0 0-.678 2.5 5 5 0 0 0  5 5 5 5 0 0 0  4.971-4.5h3.529l6 4.5v-2l-6-5.5h-2c1.063 0 1.918-.772 1.986-1.752a.75.75 0 0 0  .713-.748.75.75 0 0 0-.713-.748c-.068-.98-.923-1.752-1.986-1.752zm7.467 5.582v1.418h-.465a4 4 0 0 1  .465-1.418m-.463 2.418h.463 2.293l-1.951 1.951a4 4 0 0 1-.805-1.951m5.17 0h2.758a4 4 0 0 1-.809 1.949zm-1.707.707v2.758a4 4 0 0 1-1.949-.809zm1 0l1.951 1.951a4 4 0 0 1-1.951.805z" fill-opacity=".098" fill-rule="evenodd"/>
    <path d="m12.533 19c-.295 0-.533.223-.533.5v4c0 .277.238.5.533.5h17.467c1.063 0 1.918-.772 1.986-1.752a.75.75 0 0 0  .713-.748.75.75 0 0 0-.713-.748c-.068-.98-.923-1.752-1.986-1.752z" fill="url(#b)" fill-rule="evenodd" transform="translate(-1 -1)"/>
    <path d="m19 23v3h12l6 4.5v-2l-6-5.5z" fill="#505050"/>
    <path d="m24.5 22.5a5 5 0 0 0-4.5 2.832v1.668h.535a4 4 0 0 1  .809-1.95l1.949 1.95h2.414l1.951-1.951a4 4 0 0 1  .805 1.951h1.012a5 5 0 0 0-4.975-4.5m.5 1.035a4 4 0 0 1 1.949.809l-1.949 1.949zm-1 .002v2.756l-1.951-1.951a4 4 0 0 1 1.951-.805" fill-opacity=".098" transform="translate(-1 -1)"/>
    <path d="m22.5 20.5a5 5 0 0 0-5 5 5 5 0 0 0  5 5 5 5 0 0 0  5-5 5 5 0 0 0-5-5zm .5 1.035a4 4 0 0 1 1.949.809l-1.949 1.949zm-1 .002v2.756l-1.951-1.951a4 4 0 0 1 1.951-.805m3.658 1.512a4 4 0 0 1  .805 1.951h-2.756zm-6.314.002l1.949 1.949h-2.758a4 4 0 0 1  .809-1.95m-.807 2.95h2.756l-1.951 1.951a4 4 0 0 1-.805-1.951m5.17 0h2.758a4 4 0 0 1-.809 1.949zm-1.707.707v2.758a4 4 0 0 1-1.95-.809zm1 0l1.951 1.951a4 4 0 0 1-1.951.805z" fill="#7a7a7a"/>
    <circle cx="22.5" cy="25.5" fill="#484848" r="1"/>
  </g>
</svg>

<svg xmlns="http://www.w3.org/2000/svg" viewBox="0 0 48 48">
 <defs>
  <linearGradient id="linearGradient3764" x1="1" x2="47" gradientUnits="userSpaceOnUse" gradientTransform="matrix(0,-1,1,0,-1.5e-6,47.999998)">
   <stop style="stop-color:#e4e4e4;stop-opacity:1"/>
   <stop offset="1" style="stop-color:#eee;stop-opacity:1"/>
  </linearGradient>
  <linearGradient id="linearGradient4736" y1="24" x2="0" y2="19" gradientUnits="userSpaceOnUse">
   <stop style="stop-color:#484848;stop-opacity:1"/>
   <stop offset="0.494" style="stop-color:#505050;stop-opacity:1"/>
   <stop offset="1" style="stop-color:#484848;stop-opacity:1"/>
  </linearGradient>
 </defs>
 <g>
  
  
  
 </g>
 <g>
  <path d="m 47,24 C 47,46.703 46.703,47 24,47 1.297,47 1,46.703 1,24 1,1.297 1.297,1 24,1 46.703,1 47,1.297 47,24 z" style="fill:url(#linearGradient3764);fill-opacity:1"/>
 </g>
 <g>
  
 </g>
 <g transform="translate(1,1)">
  <path d="m 12.533 19 c -0.295 0 -0.533 0.223 -0.533 0.5 l 0 4 c 0 0.277 0.238 0.5 0.533 0.5 l 6.645 0 a 5 5 0 0 0 -0.678 2.5 a 5 5 0 0 0 5 5 5 5 0 0 0 4.971 -4.5 l 3.529 0 l 6 4.5 0 -2 -6 -5.5 -2 0 c 1.063 0 1.918 -0.772 1.986 -1.752 a 0.75 0.75 0 0 0 0.713 -0.748 0.75 0.75 0 0 0 -0.713 -0.748 c -0.068 -0.98 -0.923 -1.752 -1.986 -1.752 l -17.467 0 m 7.467 5.582 0 1.418 -0.465 0 a 4 4 0 0 1 0.465 -1.418 m -0.463 2.418 0.463 0 l 2.293 0 -1.951 1.951 a 4 4 0 0 1 -0.805 -1.951 m 5.17 0 2.758 0 a 4 4 0 0 1 -0.809 1.949 l -1.949 -1.949 m -1.707 0.707 0 2.758 a 4 4 0 0 1 -1.949 -0.809 l 1.949 -1.949 m 1 0 1.951 1.951 a 4 4 0 0 1 -1.951 0.805 l 0 -2.756 z" style="fill:#000;fill-opacity:0.098;stroke:none;fill-rule:evenodd"/>
  <path d="m 12.533 19 c -0.295 0 -0.533 0.223 -0.533 0.5 l 0 4 c 0 0.277 0.238 0.5 0.533 0.5 l 17.467 0 c 1.063 0 1.918 -0.772 1.986 -1.752 a 0.75 0.75 0 0 0 0.713 -0.748 0.75 0.75 0 0 0 -0.713 -0.748 c -0.068 -0.98 -0.923 -1.752 -1.986 -1.752 l -17.467 0 z" transform="translate(-1,-1)" style="fill:url(#linearGradient4736);fill-opacity:1;stroke:none;fill-rule:evenodd"/>
  <path d="m 19 23 0 3 12 0 6 4.5 0 -2 -6 -5.5 z" style="fill:#505050;fill-opacity:1;stroke:none"/>
  <path d="M 24.5 22.5 A 5 5 0 0 0 20 25.332 L 20 27 20.535 27 A 4 4 0 0 1 21.344 25.05 L 23.293 27 l 2.414 0 1.951 -1.951 A 4 4 0 0 1 28.463 27 l 1.012 0 A 5 5 0 0 0 24.5 22.5 m 0.5 1.035 a 4 4 0 0 1 1.949 0.809 L 25 26.293 25 23.535 m -1 0.002 0 2.756 -1.951 -1.951 A 4 4 0 0 1 24 23.537" transform="translate(-1,-1)" style="fill:#000;fill-opacity:0.098;stroke:none"/>
  <path d="m 22.5 20.5 a 5 5 0 0 0 -5 5 5 5 0 0 0 5 5 5 5 0 0 0 5 -5 5 5 0 0 0 -5 -5 z m 0.5 1.035 a 4 4 0 0 1 1.949 0.809 L 23 24.293 23 21.535 m -1 0.002 0 2.756 -1.951 -1.951 A 4 4 0 0 1 22 21.537 m 3.658 1.512 A 4 4 0 0 1 26.463 25 l -2.756 0 1.951 -1.951 z m -6.314 0.002 1.949 1.949 -2.758 0 A 4 4 0 0 1 19.344 23.05 M 18.537 26 l 2.756 0 -1.951 1.951 A 4 4 0 0 1 18.537 26 m 5.17 0 2.758 0 A 4 4 0 0 1 25.656 27.949 L 23.707 26 M 22 26.707 22 29.465 A 4 4 0 0 1 20.05 28.656 L 22 26.707 m 1 0 1.951 1.951 A 4 4 0 0 1 23 29.463 l 0 -2.756 z" style="fill:#7a7a7a;fill-opacity:1;stroke:none"/>
  <circle r="1" cy="25.5" cx="22.5" style="fill:#484848;fill-opacity:1;stroke:none"/>
 </g>
</svg>
